X: 27612
T: Moon And The Seven Stars, The
R: jig
M: 6/8
K: Dmajor
|:"D"d2A AGF|"G"GAB "D"A2A|"G"Bcd efg|"A"fed cBA|
"D"d2A AGF|"G"GAB "D"A2A|"G"Bcd efg|"A"Adc "D"d3:|
|:"A"e2A ABA|efg "D"~f2f|"A"efg "D"fed|"E"cde "A"A2A|
"G"BGB "D"AFA|"G"BGB "D"AFA|"G"Bcd efg|"A"Adc "D"d3:|

